packages/core/src/svgs/ride.svg

<svg width="24" height="24" viewBox="0 0 24 24" fill="none" xmlns="http://www.w3.org/2000/svg">
<g clip-path="url(#clip0_31_17242)">
<path d="M0 0H24V24H0V0Z" fill="#F0F3FA"/>
<path d="M6.1928 7.62881C7.73565 5.85881 11.2757 6.72881 12.7071 7.35453C12.6042 6.96453 13.0371 6.15024 15.5957 6.00881C18.7885 5.83738 20.6699 8.91881 20.0099 10.8731C19.3585 12.8231 18.4799 12.1717 17.9528 14.0874C17.4299 15.9945 16.4828 18.2317 14.6528 18.8445C13.2942 19.2988 11.2285 19.8345 8.34422 18.0131C6.02994 16.556 6.63851 14.0831 7.23851 13.2131C6.34708 12.116 4.65423 9.39881 6.1928 7.62881Z" fill="#F11E99"/>
<path d="M6.16282 16.5428C5.54996 14.9657 6.79711 13.6714 7.49996 13.2171L11.0185 12.0942L13.1957 17.9057C11.4 18.06 11.3957 18.2957 10.2 18.5228C9.00854 18.7457 6.92996 18.5228 6.16282 16.5471V16.5428Z" fill="url(#paint0_linear_31_17242)"/>
<path d="M19.0372 15.7028C17.8929 18.5742 14.8672 18.3171 12.7157 18.3171C11.19 18.3171 9.25715 18.8185 8.12144 17.7985C7.59883 17.3531 7.19774 16.7825 6.95572 16.1399C6.11144 13.6671 7.94144 13.1571 8.1643 11.7685C8.38287 10.3713 3.72858 4.43134 11.4172 4.72277C19.6029 5.03562 20.1772 12.8271 19.0372 15.7028Z" fill="#873DEE"/>
<path d="M19.4443 12.0172C19.2857 12.2101 19.1271 12.3515 18.9686 12.4886C18.4572 12.8896 18.1048 13.4592 17.9743 14.0958C17.5714 15.5615 16.9157 17.2243 15.8014 18.1929C14.9443 18.3429 14.0443 18.3343 13.23 18.3258H12.7328C12.3171 18.3258 11.8671 18.3729 11.4128 18.4201C10.5986 18.5058 9.75855 18.6001 9.05569 18.4201C8.82855 18.3043 8.59712 18.1715 8.36141 18.0215C8.15447 17.8918 7.95942 17.7441 7.77855 17.5801C7.3228 17.0422 6.97633 16.4206 6.75855 15.7501C6.65482 15.1168 6.71532 14.4675 6.93427 13.8643C7.08855 13.5858 7.28141 13.3372 7.47427 13.0929C7.7957 12.6729 8.10427 12.2701 8.18141 11.7772C8.23284 11.4429 8.00998 10.8472 7.73569 10.1401C7.37141 9.18863 6.92998 8.03148 6.98998 7.02863C8.72998 6.11577 11.4986 6.83148 12.7243 7.3672C12.6214 6.97291 13.0543 6.15863 15.6128 6.02148C15.7414 6.01291 15.8657 6.00863 15.99 6.01291C18.2614 7.44863 19.2257 9.84434 19.4443 12.0129V12.0172Z" fill="url(#paint1_linear_31_17242)"/>
<path d="M12.2271 7.35407C9.66856 7.35407 7.60284 9.41121 7.60284 11.9398C7.60284 14.4598 9.66856 16.5169 12.2271 16.5169C14.7814 16.5169 16.8471 14.4598 16.8471 11.9355C16.8471 9.41121 14.7857 7.35407 12.2271 7.35407ZM6.20142 11.9398C6.20142 8.62692 8.90142 5.95264 12.2271 5.95264C15.5486 5.95264 18.2486 8.62692 18.2486 11.9355C18.2486 15.2484 15.5486 17.9184 12.2271 17.9184C11.4386 17.9212 10.6573 17.7687 9.92775 17.4695C9.1982 17.1704 8.53471 16.7305 7.97517 16.1749C7.41563 15.6193 6.971 14.959 6.66666 14.2316C6.36231 13.5042 6.20423 12.724 6.20142 11.9355V11.9398Z" fill="white"/>
</g>
<defs>
<linearGradient id="paint0_linear_31_17242" x1="6.39425" y1="16.0242" x2="19.41" y2="11.9528" gradientUnits="userSpaceOnUse">
<stop stop-color="#4BDAF7"/>
<stop offset="1" stop-color="#6A63E3"/>
</linearGradient>
<linearGradient id="paint1_linear_31_17242" x1="8.56284" y1="16.4529" x2="18.6386" y2="10.0715" gradientUnits="userSpaceOnUse">
<stop stop-color="#2424E5"/>
<stop offset="1" stop-color="#781390"/>
</linearGradient>
<clipPath id="clip0_31_17242">
<rect width="24" height="24" fill="white"/>
</clipPath>
</defs>
</svg>

<svg xmlns="http://www.w3.org/2000/svg" width="24" height="24" fill="none" viewBox="0 0 24 24"><g clip-path="url(#a)"><path fill="#F0F3FA" d="M0 0h24v24H0z"/><path fill="#F11E99" d="M6.193 7.629c1.543-1.77 5.083-.9 6.514-.274-.103-.39.33-1.205 2.889-1.346 3.192-.172 5.074 2.91 4.414 4.864-.652 1.95-1.53 1.299-2.057 3.214-.523 1.908-1.47 4.145-3.3 4.758-1.359.454-3.424.99-6.309-.832-2.314-1.457-1.705-3.93-1.105-4.8C6.347 12.116 4.654 9.4 6.193 7.63"/><path fill="url(#b)" d="M6.163 16.543c-.613-1.577.634-2.872 1.337-3.326l3.518-1.123 2.178 5.812c-1.796.154-1.8.39-2.996.617-1.191.223-3.27 0-4.037-1.976z"/><path fill="#873DEE" d="M19.037 15.703c-1.144 2.871-4.17 2.614-6.321 2.614-1.526 0-3.459.502-4.595-.518a4.06 4.06 0 0 1-1.165-1.66c-.845-2.472.985-2.982 1.208-4.37.219-1.398-4.435-7.338 3.253-7.046 8.186.313 8.76 8.104 7.62 10.98"/><path fill="url(#c)" d="M19.444 12.017a4 4 0 0 1-.475.472c-.512.4-.864.97-.995 1.607-.403 1.466-1.058 3.128-2.173 4.097-.857.15-1.757.141-2.571.133h-.497c-.416 0-.866.047-1.32.094-.814.086-1.654.18-2.357 0a8 8 0 0 1-.695-.399 4 4 0 0 1-.582-.44 5.4 5.4 0 0 1-1.02-1.83 3.75 3.75 0 0 1 .175-1.887 6 6 0 0 1 .54-.771c.322-.42.63-.823.707-1.316.052-.334-.171-.93-.445-1.637C7.37 9.19 6.93 8.031 6.99 7.03c1.74-.913 4.509-.198 5.734.338-.103-.394.33-1.208 2.889-1.346q.191-.013.377-.008c2.271 1.436 3.236 3.831 3.454 6z"/><path fill="#fff" d="M12.227 7.354c-2.558 0-4.624 2.057-4.624 4.586 0 2.52 2.066 4.577 4.624 4.577 2.554 0 4.62-2.057 4.62-4.581s-2.061-4.582-4.62-4.582M6.201 11.94c0-3.313 2.7-5.987 6.026-5.987 3.322 0 6.022 2.674 6.022 5.982 0 3.313-2.7 5.983-6.022 5.983a6.003 6.003 0 0 1-6.026-5.982z"/></g><defs><linearGradient id="b" x1="6.394" x2="19.41" y1="16.024" y2="11.953" gradientUnits="userSpaceOnUse"><stop stop-color="#4BDAF7"/><stop offset="1" stop-color="#6A63E3"/></linearGradient><linearGradient id="c" x1="8.563" x2="18.639" y1="16.453" y2="10.072" gradientUnits="userSpaceOnUse"><stop stop-color="#2424E5"/><stop offset="1" stop-color="#781390"/></linearGradient><clipPath id="a"><path fill="#fff" d="M0 0h24v24H0z"/></clipPath></defs></svg>
